X: 9238
T: Dan Griffin's
R: polka
M: 2/4
K: Adorian
|:dB AB/A/|GA Bd/B/|AG ~e2|dB d2|
dB AB/A/|GA Bd/B/|AG ED|E/F/G A2:|
A2 Bd|dB AB/A/|G2 g2|f/e/d ~e2|
ed Bd/B/|GB AB/A/|G2 Bd/B/|AG E2|
EA Bd|dB AB/A/|G2 g2|f/e/d ~e2|
dB AB/A/|GA Bd/B/|AG ED|E/F/G A2||

